img/svg/16/device/wp7.svg

<?xml version="1.0" encoding="UTF-8" standalone="no"?>
<svg
   xmlns:dc="http://purl.org/dc/elements/1.1/"
   xmlns:cc="http://creativecommons.org/ns#"
   xmlns:rdf="http://www.w3.org/1999/02/22-rdf-syntax-ns#"
   xmlns:svg="http://www.w3.org/2000/svg"
   xmlns="http://www.w3.org/2000/svg"
   id="svg3805"
   version="1.1"
   enable-background="new 0 0 16 16"
   viewBox="0 0 16 16">
  <metadata
     id="metadata3811">
    <rdf:RDF>
      <cc:Work
         rdf:about="">
        <dc:format>image/svg+xml</dc:format>
        <dc:type
           rdf:resource="http://purl.org/dc/dcmitype/StillImage" />
        <dc:title></dc:title>
      </cc:Work>
    </rdf:RDF>
  </metadata>
  <defs
     id="defs3809" />
  <path
     style="fill:#cccccc;stroke-width:0.90889585"
     id="path3803"
     d="M 0.81355932,0.74576271 V 15.254237 H 15.38983 V 0.74576271 Z M 3.9465466,7.2029406 4.8921822,4.0128898 4.9450214,3.8424152 4.9623308,3.8215592 C 5.3568012,3.6637796 5.7294071,3.5486184 6.0710385,3.4769829 c 0.3161229,-0.067102 0.6176694,-0.097933 0.8964407,-0.092491 0.4755509,0.00998 0.9064619,0.1206017 1.3528601,0.3518305 l 0.010932,0.00725 C 8.4861441,3.8242764 8.6428389,3.9149537 8.8414407,4.04553 l 0.014576,0.031737 v 0.01088 L 8.8368864,4.1407436 8.8159336,4.2151 8.4797684,5.3413205 7.8566327,7.433261 l -0.025509,0.032643 -0.00365,0.00363 -0.062861,0.024483 -0.03553,-0.00363 V 7.486761 H 7.7181567 C 7.4648941,7.3307966 7.2498941,7.2183559 7.0412712,7.1322119 6.7798094,7.0243051 6.5238135,6.9535763 6.2587075,6.921839 5.6392162,6.8483898 4.9486653,6.9689915 4.0850212,7.3026864 l -0.028241,0.01088 h -0.00365 l -0.017309,-0.00363 -0.00819,-0.00454 -0.060128,-0.045339 -0.00365,-0.00363 -0.00637,-0.00363 -0.014576,-0.038991 z m 2.7485381,4.3126444 -0.024599,0.02812 -0.00365,0.0036 -0.056483,0.03174 h -0.039174 v -0.0035 C 6.3971822,11.466618 6.1657841,11.326974 5.9125212,11.216347 5.7321398,11.139269 5.5544916,11.08577 5.3741103,11.045873 c -0.1995128,-0.04352 -0.3981146,-0.0662 -0.6122036,-0.0671 -0.2559956,-9.06e-4 -0.5283897,0.02812 -0.8290254,0.09249 -0.3079238,0.0662 -0.6368009,0.165943 -1.0057627,0.305585 l -0.039174,-0.0073 -0.00365,-0.0036 -0.06377,-0.04987 -0.018224,-0.04266 0.9884532,-3.3496442 0.014576,-0.020856 h 0.00365 C 4.0567797,7.8032289 4.2945551,7.7198051 4.5204873,7.6545169 4.7373094,7.5910424 4.9486653,7.5420763 5.147267,7.5085254 c 0.1894913,-0.031737 0.3771611,-0.048966 0.5520762,-0.0535 0.1658052,-0.00363 0.328877,0.00454 0.4855721,0.024483 0.6222245,0.080704 1.0913982,0.3436699 1.5086441,0.6184241 v 0.00363 h 0.00365 l 0.014576,0.02811 v 0.01088 l -0.03644,0.1097216 -0.9811652,3.2607799 v 0.0045 z M 12.204915,8.8868305 v 0.00363 l -0.962945,3.2644065 -0.02824,0.02812 -0.0037,0.0036 c -0.241419,0.09975 -0.481016,0.184076 -0.711504,0.248458 -0.219555,0.06167 -0.437288,0.107907 -0.6477331,0.138738 -0.1995127,0.029 -0.3962922,0.04171 -0.587606,0.04262 -0.1803813,0 -0.3571185,-0.01178 -0.5311228,-0.03537 -0.1621434,-0.0227 -0.3243044,-0.05534 -0.4819104,-0.09978 C 8.105338,12.440468 7.9568422,12.388782 7.8147235,12.328936 7.5714821,12.227379 7.3309735,12.099521 7.077711,11.934487 L 7.042182,11.852876 8.0297243,8.5349672 v -0.00363 l 0.049194,-0.046246 0.028241,-0.020856 0.039174,-0.018136 0.03553,0.010881 c 0.2559968,0.1677597 0.4782849,0.2901749 0.6941959,0.3835732 0.2669279,0.1160678 0.5320338,0.1913304 0.814449,0.2312288 0.3206778,0.046246 0.6577538,0.046246 1.0303598,0 0.197691,-0.023576 0.407223,-0.063474 0.623135,-0.1133475 0.224112,-0.052593 0.464619,-0.1178813 0.711505,-0.1985847 l 0.05283,0.00725 v 0.00363 l 0.08199,0.060754 0.01732,0.042618 z m 1.193433,-4.1349153 -1.005763,3.3568984 -0.03553,0.02811 c -0.408136,0.1795429 -0.821735,0.302865 -1.228962,0.3654327 -0.274214,0.051686 -0.542054,0.077077 -0.800782,0.074356 C 10.089534,8.5748983 9.8508475,8.5486017 9.6230932,8.4996355 9.2304449,8.4153051 8.855106,8.2638728 8.4752119,8.0344577 l -0.2405084,-0.1459916 -0.03553,-0.0535 0.0073,-0.024483 0.9884533,-3.3251611 0.00365,-0.01088 0.060128,-0.056221 0.01731,-0.014509 v 0.00363 l 0.035531,-0.018136 0.039174,0.010881 c 0.1812923,0.1178813 0.4236228,0.2693134 0.6941942,0.3908219 0.272394,0.1224153 0.540234,0.1985848 0.821737,0.2375764 0.156695,0.021763 0.3225,0.034458 0.488306,0.031737 0.175826,-0.00272 0.359851,-0.019949 0.549342,-0.049873 0.198602,-0.031737 0.410869,-0.079796 0.626781,-0.1423644 0.225933,-0.065288 0.465529,-0.1459916 0.711504,-0.2448306 l 0.06378,0.00363 0.04645,0.031737 0.04921,0.074356 z" />
</svg>

<svg xmlns="http://www.w3.org/2000/svg" viewBox="0 0 16 16"><path d="M.814.746v14.508H15.39V.746Zm3.133 6.457.945-3.19.053-.17.017-.021a6.745 6.745 0 0 1 1.109-.345 3.97 3.97 0 0 1 .896-.093c.476.01.907.121 1.353.352l.011.008c.155.08.312.171.51.302l.015.031v.011l-.02.053-.02.074-.336 1.126-.623 2.092-.026.033-.004.004-.062.024-.036-.004v-.003h-.01a4.715 4.715 0 0 0-.678-.355 2.951 2.951 0 0 0-.782-.21c-.62-.074-1.31.047-2.174.38l-.028.012h-.004l-.017-.004-.008-.005-.06-.045-.004-.004-.007-.003-.014-.04zm2.748 4.313-.025.028-.003.003-.057.032h-.039v-.003a5.127 5.127 0 0 0-.658-.36 3.005 3.005 0 0 0-1.151-.237c-.256-.001-.528.028-.83.092a7 7 0 0 0-1.005.306l-.04-.007-.003-.004-.063-.05-.019-.043.989-3.35.014-.02h.004c.248-.1.486-.183.711-.248a5.52 5.52 0 0 1 .627-.146c.19-.032.377-.05.552-.054.166-.004.33.005.486.025.622.08 1.091.343 1.509.618v.004h.003l.015.028v.01l-.037.11-.98 3.261v.005zm5.51-2.63v.004l-.963 3.265-.028.028-.004.004c-.241.1-.481.184-.711.248-.22.062-.438.108-.648.139-.2.029-.396.041-.588.042a3.64 3.64 0 0 1-1.448-.287 4.55 4.55 0 0 1-.737-.395l-.036-.081.988-3.318v-.004l.049-.046.028-.02.04-.019.035.011c.256.168.478.29.694.384.267.116.532.19.815.23.32.047.657.047 1.03 0 .198-.023.407-.063.623-.113.224-.052.465-.117.712-.198l.052.007v.004l.082.06.018.043zm1.193-4.134-1.005 3.357-.036.028c-.408.18-.822.303-1.229.365a4.096 4.096 0 0 1-.8.075 3.497 3.497 0 0 1-.705-.077 3.696 3.696 0 0 1-1.148-.466l-.24-.146-.036-.053.007-.025.989-3.325.004-.01.06-.057.017-.014v.003l.036-.018.039.011c.181.118.423.27.694.39.272.123.54.2.822.238.156.022.322.035.488.032.176-.002.36-.02.55-.05.198-.031.41-.08.626-.142.226-.065.466-.146.712-.245l.063.004.047.032.049.074z" style="fill:#ccc;stroke-width:.90889585"/></svg>
